packages/calcite-ui-icons/icons/intersection-24.svg

<?xml version="1.0" encoding="UTF-8"?><svg id="icons" xmlns="http://www.w3.org/2000/svg" viewBox="0 0 24 24"><defs><style>.cls-1{fill:none;}</style></defs><path d="M21.99902,2.00067l-2.99902-.00067.00098,2.99933,2.99902.00067-.00098-2.99933ZM20,4v-1h1v1h-1ZM2,3h8v1H2v-1ZM15,3h1v1h-1v-1ZM17,3h1v1h-1v-1ZM13,3h1v1h-1v-1ZM11,3h1v1h-1v-1ZM20,22v-8s1,0,1,0v8s-1,0-1,0ZM19.99999,9v-1s1,0,1,0v1s-1,0-1,0ZM19.99999,7v-1s1,0,1,0v1s-1,0-1,0ZM20,11v-1s1,0,1,0v1s-1,0-1,0ZM20,13v-1s1,0,1,0v1s-1,0-1,0Z"/><rect class="cls-1" width="24" height="24"/></svg>

<svg xmlns="http://www.w3.org/2000/svg" viewBox="0 0 24 24"><path d="M21.999 2H19l.001 3H22zM20 4V3h1v1zM2 3h8v1H2zm13 0h1v1h-1zm2 0h1v1h-1zm-4 0h1v1h-1zm-2 0h1v1h-1zm9 19v-8h1v8zm0-13V8h1v1zm0-2V6h1v1zm0 4v-1h1v1zm0 2v-1h1v1z"/><path d="M0 0h24v24H0z" style="fill:none"/></svg>
